!!!COM:	Bach, Johann Sebastian
!!!OMV:	O Gott, du frommer Gott
!!!OTL:	O Gott, du frommer Gott
**recip	**kern	**fb	**kern	**kern	**kern	**kern	**kern	**kern	**kern
*	*part8	*part8	*part7	*part6	*part5	*part4	*part3	*part2	*part1
*	*staff8	*	*staff7	*staff6	*staff5	*staff4	*staff3	*staff2	*staff1
*	*I"Continuo	*	*I"Voice	*I"Voice	*I"Voice	*I"Voice	*I"Viola	*I"Violin	*I"Violin
*	*I'Cont.	*	*I'V	*I'V	*I'V	*I'V	*I'Vla.	*I'Vln.	*I'Vln.
*	*clefF4	*	*clefF4	*clefGv2	*clefG2	*clefG2	*clefC3	*clefG2	*clefG2
*	*Trd0c0	*	*	*	*	*	*	*	*
*	*k[b-e-]	*	*k[b-e-]	*k[b-e-]	*k[b-e-]	*k[b-e-]	*k[b-e-]	*k[b-e-]	*k[b-e-]
*	*M4/4	*	*M4/4	*M4/4	*M4/4	*M4/4	*M4/4	*M4/4	*M4/4
8	4BB-	.	4BB-	4f	4b-	4dd	8dL	4f	8b-L
8	.	.	.	.	.	.	8e-J	.	8ccJ
=2	=2	=2	=2	=2	=2	=2	=2	=2	=2
8	4B-	.	4B-	4d	4f	4b-	4.f	8fL	8ddL
8	.	.	.	.	.	.	.	8gJ	8ee-J
8	4A	6	4A	4c	4f	4cc	.	4a	4ff
8	.	.	.	.	.	.	8a	.	.
8	4G	5	4G	8B-L	4b-	8ddL	4d	4b-	8ggL
8	.	6	.	8cJ	.	8ee-J	.	.	8aaJ
8	4D	6	4D	4d	8b-L	4ff	4d	4ff	[4bb-
8	.	.	.	.	8aJ	.	.	.	.
=3	=3	=3	=3	=3	=3	=3	=3	=3	=3
4	4E-	6 5	4E-	4d	4g	2ee-	4G	4gg	4bb-]
4	4F	7	4F	4c	4a	.	4c	4ff	4aa
4	4BB-;	.	4BB-;	4B-;	4f;	4dd;	4d;	4ff;	4bb-;
8	4B-	.	4B-	8B-L	4f	8ddL	4b-	8ddL	8ffL
8	.	.	.	8cJ	.	8ee-J	.	8ccJ	8ee-J
=4	=4	=4	=4	=4	=4	=4	=4	=4	=4
8	8BB-L	.	8BB-L	8dL	4b-	4ff	8fL	4b-	8ddL
8	8CJ	.	8CJ	8e-J	.	.	8e-J	.	8ccJ
8	8DL	6	8DL	4f	4B-	4ff	4d	4f	[4b-
8	8E-J	.	8E-J	.	.	.	.	.	.
8	4F	4	4F	4f	4f	4cc	8c	4.f	8b-L]
8	.	3	.	.	.	.	4F	.	8aJ
8	4D	8	4D	8fL	4a	8ddL	.	.	[4ff
8	.	7	.	8e-J	.	8ccJ	8A	8f	.
=5	=5	=5	=5	=5	=5	=5	=5	=5	=5
4	4G	7	4G	4d	2g	2b-	4B-	2g	4ff]
4	4C	7 n	4C	4c	.	.	4c	.	4een
4	4F;	.	4F;	4c;	4f;	4a;	4c;	4a;	4ff;
8	8FL	.	8FL	4A	4c	4f	8aL	4cc	[4ff
8	8E-J	.	8E-J	.	.	.	8gJ	.	.
=6	=6	=6	=6	=6	=6	=6	=6	=6	=6
!!pagebreak:original
8	4D	6	4D	8B-L	4f	4b-	4f	4b-	8ff]
8	.	.	.	8dJ	.	.	.	.	4bb-
8	4C	7	4C	8GL	8gL	4cc	4e-	4ee-	.
8	.	6	.	8cJ	8e-J	.	.	.	8aa
8	4BB-	.	4BB-	4F	8b-L	8ddL	4f	4dd	8bb-L
16	.	.	.	.	8dJ	16ee-L	.	.	16cccL
16	.	.	.	.	.	16ffJJ	.	.	16dddJJ
8	4E-	8 6	4E-	4G	8e-L	8ee-L	8cL	4gg	8cccL
8	.	7 5	.	.	8B-J	8ddJ	8gJ	.	8bb-J
=7	=7	=7	=7	=7	=7	=7	=7	=7	=7
2.	2.F;	.	2.F;	2.A;	2.f;	2.cc;	2.cc;	2.ff;	2.aa;
8	4F#X	6	4F#X	4d	4a	4dd	4a	4dd	4aa
8	.	5	.	.	.	.	.	.	.
=8	=8	=8	=8	=8	=8	=8	=8	=8	=8
4	4G	.	4G	4g	4d	4b-	4b-	4dd	4gg
8	4A	6	4A	4c	4f	4cc	8aL	4cc	8ffL
8	.	.	.	.	.	.	8gJ	.	8ee-J
8	4B-	.	4B-	4.F	8fL	8ddL	8fL	8b-L	[2dd
8	.	.	.	.	8gJ	8ee-J	8e-J	8cc	.
8	4Bn	-r7	4Bn	.	8a-XL	4ff	4d	8dd	.
8	.	6	.	8G	8gJ	.	.	8bnJ	.
=9	=9	=9	=9	=9	=9	=9	=9	=9	=9
8	4c	9	4c	8GL	2g	2ee-	8e-L	2g	8ddL]
8	.	.	.	8FJ	.	.	8dJ	.	8gJ
16	4C	8	4C	16E-LL	.	.	4c	.	[4cc
16	.	.	.	16FJ	.	.	.	.	.
8	.	.	.	8GJ	.	.	.	.	.
8	4G;	4	4G;	4G;	4g;	4dd;	4d;	4g;	8ccL]
8	.	n	.	.	.	.	.	.	8bn;J
8	4G	-	4G	4g	4b-	8ddL	4d	4g	4b-X
8	.	.	.	.	.	8ee-J	.	.	.
=10	=10	=10	=10	=10	=10	=10	=10	=10	=10
!!pagebreak:original
8	8AL	6	8AL	8cL	8aL	4ff	8cL	4f	4cc
8	8FJ	.	8FJ	8e-J	8ccJ	.	8AJ	.	.
8	4B-	3	4B-	8dL	4b-	4ff	[4F	8fL	8ddL
16	.	nr4	.	16cL	.	.	.	8gJ	8eenJ
16	.	.	.	16B-JJ	.	.	.	.	.
8	8AL	6	8AL	4f	8ccL	4cc	8FL]	4a	4.ff
8	8GJ	.	8GJ	.	8b-J	.	8G	.	.
8	4F	6	4F	8fL	4a	4dd	8A	[4dd	.
8	.	5	.	8fJ	.	.	8aJ	.	8aa
=11	=11	=11	=11	=11	=11	=11	=11	=11	=11
8	4F	6 4 2	4F	4g	4d	2b-	8b-L	4dd]	8ggL
8	.	.	.	.	.	.	8aJ	.	8ffJ
4	4En	6 5	4En	4c	4g	.	4g	4cc	4gg
4	4F;	.	4F;	4f;	4c;	4a;	4a;	4cc;	4ff;
8	4D	5	4D	4A	4f	4f	[4a	[4dd	8ffL
8	.	.	.	.	.	.	.	.	8ee-J
=12	=12	=12	=12	=12	=12	=12	=12	=12	=12
8	4G	5	4G	8B-L	8fL	4b-	8aL]	8ddL]	8ddL
8	.	6	.	8e-J	8B-J	.	8gJ	8ee-J	8bb-
8	8FL	.	8FL	8AL	2f	4cc	4a	[4ff	8aa
8	8E-XJ	.	8E-XJ	8cJ	.	.	.	.	8ggJ
8	4D	6	4D	8FL	.	4dd	4.b-	8ffL]	4ff
8	.	.	.	8B-J	.	.	.	8b-	.
8	4C	6	4C	8GL	8ccL	4ee-	.	8ee-	8ggL
8	.	.	.	8e-J	8aJ	.	8e-	8ccJ	8aaJ
=13	=13	=13	=13	=13	=13	=13	=13	=13	=13
8	8DL	6	8DL	8B-L	8fL	4dd	8fL	8ffL	4.bb-
8	8E-J	.	8E-J	8gJ	8e-J	.	8A	8ggJ	.
8	4F	4	4F	8cL	4e-	4cc	8f	4ff	.
8	.	3	.	8fJ	.	.	8ccJ	.	8aa
4	4BB-;	.	4BB-;	4f;	4d;	4b-;	4dd;	4ff;	4bb-;
=||	=||	=||	=||	=||	=||	=||	=||	=||	=||
*-	*-	*-	*-	*-	*-	*-	*-	*-	*-
!!!system-decoration: s1,s2,s3,s4,s5,s6,s7,s8
